src/svgs/plus.svg

<svg fill="none" height="8" viewBox="0 0 8 8" width="8" xmlns="http://www.w3.org/2000/svg"><path d="m7.6875 3.6875h-3.375v-3.375c0-.172594-.13991-.3125-.3125-.3125s-.3125.139906-.3125.3125v3.375h-3.375c-.172594 0-.3125.13991-.3125.3125s.139906.3125.3125.3125h3.375v3.375c0 .17259.13991.3125.3125.3125s.3125-.13991.3125-.3125v-3.375h3.375c.17259 0 .3125-.13991.3125-.3125s-.13991-.3125-.3125-.3125z" fill="#fff"/></svg>

<svg width="8" height="8" viewBox="0 0 8 8" fill="none" xmlns="http://www.w3.org/2000/svg">
<path d="M7.6875 3.6875H4.3125V0.3125C4.3125 0.139906 4.17259 0 4 0C3.82741 0 3.6875 0.139906 3.6875 0.3125V3.6875H0.3125C0.139906 3.6875 0 3.82741 0 4C0 4.17259 0.139906 4.3125 0.3125 4.3125H3.6875V7.6875C3.6875 7.86009 3.82741 8 4 8C4.17259 8 4.3125 7.86009 4.3125 7.6875V4.3125H7.6875C7.86009 4.3125 8 4.17259 8 4C8 3.82741 7.86009 3.6875 7.6875 3.6875Z" fill="white"/>
</svg>
